X:4
T:Paddy's Trip to Scotland
R:reel
D:Altan: Horse with a Heart
D:Dervish: The Boys of Sligo
Z:id:hn-reel-189
M:C|
K:D
dA~A2 BAGF|GABd cABc|d2ed cABc|dfed cABc|
dA~A2 BAGF|GABd cABc|d2ed cABc|1 dfec d2dc:|2 dfec d2dB||
|:Adfd Adfd|~g3f edcB|Acec Acec|~f3e dcBc|
Adfd Adfd|~g3f efge|aA~A2 BABc|1 dfec d2dB:|2 dfec dABc||
